X:1
T:Hard Times of Old England
M:3/4
L:1/4
K:G
 G3/2- A/2| B G A| B G A| B G B| A- G F| G A G| F E D/2D/2| E C E|\
 D2 D| G G D| E E C| D E C| D2 F/2G/2| A3/2 B/2 c| B A F| G2 D-| D G3/2 F/2|\
 E D C| D E F| G3-| G||
